src/assets/glasses.svg

<svg width="45" height="63" viewBox="0 0 45 63" fill="none" xmlns="http://www.w3.org/2000/svg">
<path d="M35.8038 1.38129L43.0007 18.1375C46.1507 25.4657 43.0226 33.9969 35.8695 37.5407L25.0413 42.9657C24.2976 43.3375 23.8163 44.1032 23.8163 44.9344V58.825H31.582C32.4788 58.825 33.2007 59.5469 33.1788 60.4438C33.157 61.3407 32.3913 62.0188 31.5163 62.0188H12.7476C11.8507 62.0188 11.1288 61.2969 11.1507 60.4C11.1726 59.5032 11.9382 58.825 12.8132 58.825H20.4476V44.9125C20.4476 44.0813 19.9663 43.3157 19.2226 42.9438L8.46008 37.5625C5.02068 35.8427 2.36872 32.8733 1.04707 29.2622C-0.274584 25.651 -0.165958 21.6712 1.35071 18.1375L8.54759 1.38129C8.66991 1.08201 8.87906 0.826213 9.14808 0.646869C9.41709 0.467525 9.73365 0.372848 10.057 0.375037H34.2945C34.9507 0.375037 35.5413 0.768787 35.8038 1.38129ZM6.57883 17.875C5.63821 17.875 4.76321 18.4438 4.39133 19.3188C3.20887 22.0808 3.12544 25.1901 4.15808 28.0116C5.19073 30.833 7.26154 33.1539 9.94758 34.5L19.7038 39.3782C21.257 40.1438 23.0726 40.1438 24.6257 39.3782L34.4038 34.5C39.982 31.7 42.432 25.05 39.9601 19.3188C39.5882 18.4219 38.7351 17.875 37.7726 17.875H36.4863L37.9235 21.2219C38.4048 22.3375 37.8798 23.6282 36.786 24.0875C36.5016 24.2188 36.2173 24.2844 35.9329 24.2844C35.0798 24.2844 34.2704 23.7813 33.9204 22.95L31.7438 17.875H6.57883ZM36.4863 17.875L30.7288 4.46566C30.2476 3.37191 28.9788 2.84691 27.8632 3.32816C26.7695 3.78754 26.2445 5.07816 26.7257 6.19379L31.7438 17.875H36.4863Z" fill="#00AACB"/>
</svg>

<svg xmlns="http://www.w3.org/2000/svg" width="45" height="63" fill="none" viewBox="0 0 45 63"><path fill="#00aacb" d="M35.804 1.381 43 18.138c3.15 7.328.022 15.859-7.131 19.403L25.04 42.966a2.21 2.21 0 0 0-1.225 1.968v13.891h7.766c.897 0 1.619.722 1.597 1.619s-.788 1.575-1.663 1.575H12.748A1.583 1.583 0 0 1 11.15 60.4c.022-.897.787-1.575 1.662-1.575h7.635V44.912c0-.83-.482-1.596-1.225-1.968L8.46 37.562a15.07 15.07 0 0 1-7.11-19.424L8.549 1.38A1.62 1.62 0 0 1 10.057.375h24.237c.657 0 1.247.394 1.51 1.006M6.579 17.875a2.39 2.39 0 0 0-2.188 1.444A11.79 11.79 0 0 0 9.948 34.5l9.756 4.878a5.56 5.56 0 0 0 4.922 0l9.778-4.878c5.578-2.8 8.028-9.45 5.556-15.181-.372-.897-1.225-1.444-2.187-1.444h-1.287l1.438 3.347c.48 1.115-.044 2.406-1.138 2.865a2 2 0 0 1-.853.197 2.18 2.18 0 0 1-2.013-1.334l-2.176-5.075zm29.907 0L30.73 4.465a2.184 2.184 0 0 0-2.866-1.137c-1.093.46-1.619 1.75-1.137 2.866l5.018 11.681z"/></svg>
